X:1
T:De Leliën
T:Ic. Bikkers/F. Silcher arr. Wim Verkaik
T:De Leliën
%%score [ 1 2 3 4 ]
L:1/8
Q:1/4=72
M:3/4
K:Eb
V:1 treble nm="Soprano" snm="S"
V:2 treble nm="Alto" snm="A"
V:3 treble-8 nm="Tenor" snm="T"
V:4 bass nm="Bass" snm="B"
V:1
 B3 G cB | B>A G2 z2 | FG Ac BA | A2 G2 z2 | B3 G cB | B>A G2 z2 | FB dc B=A | c2 B2 z2 | A3 G FE | %9
w: 1.Zie de le- liën|op het veld,|Zie, hoe schoon- * zij _|bloei- en.|Wat doet haar van|zor- gen vrij,|Daar zo heer- * lijk _|groei- en?|Wie gaf haar die|
w: 2.God, de Heer riep|u uit d'aard,|Doet zo blij _ u _|tie- ren,|Hij gaf u dat|schoo- ne kleed,|Dat gij d'aard _ zoudt _|sie- ren.|Dat gij ons bij|
w: 3.O, ver- blijd u|dan, mijn hart!|Werp op Hem _ uw _|zor- gen,|Die na droe- ven|win- ter- nacht|roept den len- * te- *|mor- gen;|O, ver- trouw in|
 D>E F2 z2 | c3 B AG | F>G F2 z2 | B3 G AB | cdfe dc | B3 A/G/ AF | F2 G2 z2 :| %16
w: stil- le pracht,|Wie dat kleed zo|rein en zacht?|Zon- der zijns ge-|lij _ _ _ ke, _|Zon- der _ zijns ge-|lij- ke?|
w: zorg en smart,|met een stil ge-|loo- vig hart,|Leert op Hem ver-|trouw- * * * en, _|Leert op _ Hem ver-|trouw- en.|
w: lief en leed:|Die de bloe- men|niet ver- geet,|Is ook mij een|Va- * * * der, _|is ook _ mij een|Va- der.|
V:2
 G3 E AG | G>F E2 z2 | DE FA GF | F2 E2 z2 | G3 E AG | G>F E2 z2 | DD FE DC | E2 D2 z2 | F3 E DC | %9
w: 1.Zie de le- liën|op het veld,|Zie, hoe schoon- * zij _|bloei- en.|Wat doet haar van|zor- gen vrij,|Daar zo heer- * lijk _|groei- en?|Wie gaf haar die|
w: 2.God, de Heer riep|u uit d'aard,|Doet zo blij _ u _|tie- ren,|Hij gaf u dat|schoo- ne kleed,|Dat gij d'aard _ zoudt _|sie- ren.|Dat gij ons bij|
w: 3.O, ver- blijd u|dan, mijn hart!|Werp op Hem _ uw _|zor- gen,|Die na droe- ven|win- ter- nacht|roept den len- * te- *|mor- gen;|O, ver- trouw in|
 B,>C D2 z2 | A3 G FE | D>E D2 z2 | G3 E FG | ABdc BA | G3 F/E/ FD | D2 E2 z2 :| %16
w: stil- le pracht,|Wie dat kleed zo|rein en zacht?|Zon- der zijns ge-|lij _ _ _ ke, _|Zon- der _ zijns ge-|lij- ke?|
w: zorg en smart,|met een stil ge-|loo- vig hart,|Leert op Hem ver-|trouw- * * * en, _|Leert op _ Hem ver-|trouw- en.|
w: lief en leed:|Die de bloe- men|niet ver- geet,|Is ook mij een|Va- * * * der, _|is ook _ mij een|Va- der.|
V:3
 e3 B ce | d>d B2 z2 | Bc df ed | B2 B2 z2 | e3 B ce | d>d c2 z2 | BB =A2 A2 | F2 F2 z2 | d3 e fg | %9
w: 1.Zie de le- liën|op het veld,|Zie, hoe schoon- * zij _|bloei- en.|Wat doet haar van|zor- gen vrij,|Daar zo heer- lijk|groei- en?|Wie gaf haar die|
w: 2.God, de Heer riep|u uit d'aard,|Doet zo blij _ u _|tie- ren,|Hij gaf u dat|schoo- ne kleed,|Dat gij d'aard zoudt|sie- ren.|Dat gij ons bij|
w: 3.O, ver- blijd u|dan, mijn hart!|Werp op Hem _ uw _|zor- gen,|Die na droe- ven|win- ter- nacht|roept den len- te-|mor- gen;|O, ver- trouw in|
 f>e d2 z2 | f3 e dc | B>=A _A2 x2 | G3 B e_d | cB A2 A2 | e3 e dB | B2 B2 z2 :| %16
w: stil- le pracht,|Wie dat kleed zo|rein en zacht?|Zon- der zijns ge-|lij _ _ ke,|Zon- der zijns ge-|lij- ke?|
w: zorg en smart,|met een stil ge-|loo- vig hart,|Leert op Hem ver-|trouw- * * en,|Leert op Hem ver-|trouw- en.|
w: lief en leed:|Die de bloe- men|niet ver- geet,|Is ook mij een|Va- * * der,|is ook mij een|Va- der.|
V:4
 E,3 E, E,E, | B,,>B,, E,2 z2 | B,,B,, B,,2 B,,2 | E,2 E,2 z2 | E,3 E, E,E, | B,,>B,, C,2 z2 | %6
w: 1.Zie de le- liën|op het veld,|Zie, hoe schoon- zij|bloei- en.|Wat doet haar van|zor- gen vrij,|
w: 2.God, de Heer riep|u uit d'aard,|Doet zo blij u|tie- ren,|Hij gaf u dat|schoo- ne kleed,|
w: 3.O, ver- blijd u|dan, mijn hart!|Werp op Hem uw|zor- gen,|Die na droe- ven|win- ter- nacht|
 D,E, F,2 F,2 | B,,2 B,,2 z2 | B,3 B, B,B, | B,,>B,, B,,2 z2 | B,3 B, B,B, | B,,>B,, B,,2 z2 | %12
w: Daar zo heer- lijk|groei- en?|Wie gaf haar die|stil- le pracht,|Wie dat kleed zo|rein en zacht?|
w: Dat gij d'aard zoudt|sie- ren.|Dat gij ons bij|zorg en smart,|met een stil ge-|loo- vig hart,|
w: roept den len- te-|mor- gen;|O, ver- trouw in|lief en leed:|Die de bloe- men|niet ver- geet,|
 E,3 E, E,E, | A,,4 A,,2 | B,,3 B,, D,D, | E,2 [E,,E,]2 z2 :| %16
w: Zon- der zijns ge-|lij ke,|Zon- der zijns ge-|lij- ke?|
w: Leert op Hem ver-|trouw- en,|Leert op Hem ver-|trouw- en.|
w: Is ook mij een|Va- der,|is ook mij een|Va- der.|

